X:1
T:Title
%%score ( 1 2 ) ( 3 4 5 ) ( 6 7 8 )
L:1/8
Q:1/4=103
M:4/4
K:F
V:1 treble nm="Grand Piano, Soprano"
V:2 treble 
V:3 treble nm="Grand Piano, Staff-1"
V:4 treble 
V:5 treble 
V:6 bass nm="Choir Pad, Raise, Raise the Ensign"
V:7 bass 
V:8 bass 
V:1
 c2 F2 A2 _A2 | A3 E G2 F2 | c2 F2 A2 BA | A3 G G4 | c2 F2 A2 Bc | B2 AG F2 E2 | F2 c2 cBFG | %7
w: By~Louis~D.~Eichhorn * * *|||||||
 A2 G2 F4 | [Bc]2 [Ad]>[Ge] [Ad]2 [Ac]2 | [GB]2 [Ac]>[GB] [FA]4 | [CA]2 [EA]>[E=B] [Ec]2 [Ad]2 | %11
w: ||||
 [_Ae]3 [=Bd] c2- [_Bc]2 | [Ac]2 [Ad]>[Ae] [Bd]2 [Bc]2 | [Ac]2 d_e [FBd]4 | %14
w: |||
 [Fd]2 [Ge]>[_Af] [=Af]2 cB | A2 [Ec]2 [CFc]4- | [CFc]4 z4 |] %17
w: |||
V:2
 x8 | x8 | x8 | x8 | x8 | x8 | x8 | x8 | x8 | x8 | x8 | z4 =A2 z2 | x8 | z2 A2 z4 | x8 | x8 | x8 |] %17
V:3
 [Cc]2 [CF]2 [FA]2 [F_A]2 | A4 z4 | z4 z2 .B2 | A4 z4 | z4 z2 .B2 | z2 .A2 F2 z2 | %6
 [CF]2 [CFc]2 cB [_EF^c]2 | [CFc]2 [EB]2 A2 [Ac]2 | z8 | z8 | z8 | z8 | z8 | z8 | z8 | z8 | z8 |] %17
V:4
 x8 | F2 z G G2 F2 | [CEc]2 [DF]2 [EA]2 ^C-[CA] | [DF]2 z G [CEG]4 | %4
 [CFc]2 [C_EF]2 [CDA]2 [CD]-[CDc] | [B,DB]2 B,-[B,G] ^C2- [CE]2 | z4 D2 z2 | z4 F4 | x8 | x8 | x8 | %11
 x8 | x8 | x8 | x8 | x8 | x8 |] %17
V:5
 x8 | z2 E2 C4 | x8 | z2 [DF]2 z4 | x8 | x8 | x8 | x8 | x8 | x8 | x8 | x8 | x8 | x8 | x8 | x8 | %16
 x8 |] %17
V:6
 z2 A,2 z4 | C2 z2 B,2 z2 | z2 A,2 z4 | [D,A,]2 [D,=B,]2 [C,_B,]4 | z2 A,2 z4 | z4 B,2 z2 | %6
 z4 z2 .B,2 | z2 .G,2 z4 | [C,C]2 C>C [F,C]2 [F,C]2 | [E,C]2 [C,C]>[C,C] [F,C]4 | %10
 [E,A,]2 [E,C]>[E,D] [A,C]2 =B,A, | z2 E2 E4 | FC [F,D]>[F,E] D-[F,D] [E,C]2 | C_EDC [B,,B,]4 | %14
 [B,D]2 [=B,D]>[B,D] C2 C[K:bass]B, | A,2 [G,B,]2 [F,A,]4- | [F,A,]4 z4 |] %17
V:7
 [F,A,]2 F,E, [D,A,]2 [^C,=B,]2 | C,2- [C,B,]2 F,2- [F,A,]2 | [A,,A,]2 C,D, [^C,A,]2 [A,,A,]2 | %3
 x8 | [F,A,]2 C,F, [^F,A,]2 [D,F,]2 | [G,,G,]2 [B,,G,]2 B,,2- [B,,G,]2 | %6
 [A,,A,]2 [D,A,]2 [B,,G,]2 B,,-[B,,G,] | [C,A,]2 C,-[C,C] [F,C]4 | x8 | x8 | z4 z2 F,2 | %11
 =B,2 z E, A,2 G,2 | F,2 z2 .G,2 z2 | F,2 F,2 z4 | x7[K:bass] x | x8 | x8 |] %17
V:8
 x8 | x8 | x8 | x8 | x8 | x8 | x8 | x8 | x8 | x8 | x8 | E,4 z4 | x8 | x8 | x7[K:bass] x | x8 | %16
 x8 |] %17

